X: 36860
T: Ships In Full Sail, The
R: jig
M: 6/8
K: Amajor
|:E|EAA cAA|eAA cee|efe ecA|cBB BAF|
EAA cAA|eAA cee|agf edc|dcB A2:|
|:e|aga ece|aga ece|aga b3|bc'a gfe|
aba agf|efe efg|aec BAB|cAG A2:|

